dist/svgs/carbon-icons/svg/asleep-glyph.svg

<svg width="14px" height="17px" viewBox="0 0 14 17" version="1.1" xmlns="http://www.w3.org/2000/svg" xmlns:xlink="http://www.w3.org/1999/xlink" fill-rule="evenodd">
	<path d="M12.0428965,3.50537551 C10.5427127,1.20537551 7.9423942,-0.0946244947 5.24206344,0.00537550532 C4.94202669,0.00537550532 4.74200219,0.105375505 4.64198994,0.405375505 C4.54197769,0.605375505 4.64198994,0.805375505 4.84201444,1.00537551 C5.14205119,1.30537551 5.34207569,1.60537551 5.54210019,1.90537551 C6.74224719,3.80537551 7.04228394,6.20537551 6.34219819,8.30537551 C5.34207569,10.8053755 3.14180619,12.6053755 0.541487681,13.0053755 C0.341463181,13.0053755 0.141438681,13.2053755 0.0414264304,13.4053755 C-0.0585858198,13.6053755 0.0414264304,13.8053755 0.141438681,14.0053755 C1.64162243,15.3053755 3.54185519,16.0053755 5.44208794,16.0053755 C6.04216144,16.0053755 6.74224719,15.9053755 7.3423207,15.8053755 C9.9426392,15.1053755 11.9428842,13.3053755 12.9430067,10.8053755 C13.9431292,8.30537551 13.6430925,5.60537551 12.0428965,3.50537551 L12.0428965,3.50537551 L12.0428965,3.50537551 Z" id="Shape" stroke="none" fill="#000000"></path>
</svg>

<svg xmlns="http://www.w3.org/2000/svg" fill-rule="evenodd" viewBox="0 0 14 17"><path d="M12.043 3.505c-1.5-2.3-4.1-3.6-6.8-3.5-.301 0-.501.1-.601.4-.1.2 0 .4.2.6.3.3.5.6.7.9 1.2 1.9 1.5 4.3.8 6.4-1 2.5-3.2 4.3-5.8 4.7-.2 0-.4.2-.5.4-.1.2 0 .4.1.6 1.5 1.3 3.4 2 5.3 2 .6 0 1.3-.1 1.9-.2 2.6-.7 4.6-2.5 5.601-5 1-2.5.7-5.2-.9-7.3z"/></svg>
